X: 42
P: \AAlborg polka
O: Trad efter Viggo Gade
N: From transcription by Esben Wolf, 1997
Z: 2004 John Chambers <jc@trillian.mit.edu>
M: 2/4
L: 1/16
K: F
c4 \
|: "F"a2a2 f2f2 | c2c2 cBA2 | "C7"B2g2 gfe2 |1,3 "F"fefg a2c2  :|3,4 "F"f>gfe Hf4 :|
K: Dm
|:"Dm"d^cde fefg | a^gab a4 |1 "A7"g^fga g4 | "Dm"fefg f3e :|2 "C7"c'c'2c' c'2c'2 | c'4 "d.C."c4 |]
K:Bb
"Trio"\
|:"Bb"d6 e2 | =e2f2 d'3c' | b6 d2 | g4 f4 | "F7"c6 d2 | e2f2 a3g | "Bb"f6 =ef | "F7"g2^f2 =f2e2 |
| "Bb"d6 e2 | =e2f2 d'3c' | b6 d2 | g4 f4 | "F7"e2c'2 c'ba2 | "Bb"b2d'2 d'c'b2 | "F7"a2c'2 c'ba2 | "Bb"b>c'ba b4 :|
%%newpage
